!!!OTL: 2061. Marias Wanderung.
!!!ODT: 1843
!!!ARE: Europa, Mitteleuropa, Deutschland, Schlesien, Schnurgast
!!!SCT: E2061
!!!TXL: @@DE
!!!YEM: Copyright 1995, estate of Helmut Schaffrath.
**kern	**text
*ICvox	*
*M4/4	*
*met(c)	*
*k[f#]	*
*G:	*
!LO:TX:a:t=Aus Schleſien (Gegend von Schnurgaſt) 1843.	!
{4d	Ma-
=1	=1
4g	-ri-
4g	-a
4g	ging
4b/	aus
=2	=2
2g	wan-
4d}	-dern
{4d	ſie
=3	=3
4g	ſuch-
4g	-te
4a	ih-
4a	-ren
=4	=4
2b	Sohn,
4r}	.
{8gL	den
8aJ	.
=5	=5
[4.b	ſie
8b]	ver-
4cc	-lo-
4ee	-ren
=6	=6
(2dd	hat,
4b)}	.
{4b	den
=7	=7
4.dd	ſie
8dd	nicht
4cc	fin-
4a	-den
=8	=8
2g	kann.
4r}	.
==	==
!!!AGN: geistlich, Marien - Lied, Legende
!!!ONB: ESAC (Essen Associative Code) Database: ERK3
!!!AMT: simple quadruple
!!!AIN: vox
!!!EED: Helmut Schaffrath
!!!EEV: 1.0
!!!GTL: 4. Katholische Lieder: b) Marienlieder (Rufe und Legenden.)
!!!URL-scan: https://rosdok.uni-rostock.de/mcrviewer/recordIdentifier/rosdok_ppn745177999/iview2/phys_0762.iview2?x=132.9768352394408&y=1429.776791158598&scale=0.7014306698522891&rotation=0&layout=singlePageLayout
!!!ENC: Anna Maria Matuszewska
!!!EEV: 2025/13/01
*-	*-
